svgs/sharp-regular/h1.svg

<svg xmlns="http://www.w3.org/2000/svg" viewBox="0 0 576 512"><!--! Font Awesome Pro 6.6.0 by @fontawesome - https://fontawesome.com License - https://fontawesome.com/license (Commercial License) Copyright 2024 Fonticons, Inc. --><path d="M48 88l0-24L0 64 0 88 0 248 0 424l0 24 48 0 0-24 0-152 224 0 0 152 0 24 48 0 0-24 0-176 0-160 0-24-48 0 0 24 0 136L48 224 48 88zm336.4 83.1l20.4-12.7 51.3-32L456 400l-48 0-24 0 0 48 24 0 72 0 72 0 24 0 0-48-24 0-48 0 0-312 0-24-24 0-8 0-6.9 0-5.8 3.6-75.3 47 0 55.8 .4 .6z"/></svg>

<svg xmlns="http://www.w3.org/2000/svg" viewBox="0 0 576 512"><!--! Font Awesome Pro 6.4.0 by @fontawesome - https://fontawesome.com License - https://fontawesome.com/license (Commercial License) Copyright 2023 Fonticons, Inc. --><path d="M48 88V64H0V88 248 424v24H48V424 272H272V424v24h48V424 248 88 64H272V88 224H48V88zm336.4 83.1l20.4-12.7 51.3-32V400H408 384v48h24 72 72 24V400H552 504V88 64H480h-8-6.9l-5.8 3.6-75.3 47v55.8l.4 .6z"/></svg>
